X:3136
L:1/4
Q:3/4=70
M:6/4
K:C
 C |[K:D] e e d"_As Writ, but should be in 3/2" .B A G F3/2 E/ D | f e d e2 E | B A G F3/2 E/ D | 
 f e (d/c/) d2 D2 || B A G F3/2 E/ D | (a/g/) a e2 E | B A G F E D | f e (d/c/) d2 D || 
 B A G A D2 | B A G c E2 | B A G (F/G/) A | B c d (c/d/) e | d2 D |]

